!!!OTL: Der Maedchenmoerder (Halewijn - Ulinger).
!!!OTL-incipit: Als Odilia ein klein Kind war,
!!!ARE: Europa, Mitteleuropa, Deutschland (BRD), Rheinprovinz, Niederrhein
!!!YOR: 2, S. 100
!!    1840 gedruckt in Berlin
!!!SCT: Q0041M
!!!YEM: Copyright 1995, estate of Helmut Schaffrath.
**kern	**text
*ICvox	*
*M3/4	*
*k[]	*
*a:	*
!LO:TX:a:t=Kretzschm.-Zucc. 2 (1840)	!
{8gL	Als
8ccJ	.
8dd	O-
=1	=1
4ee	-di-
8dd	-lia
8ff	ein
8ee	klein
8dd	Kind
=2	=2
4.cc}	war,
{8gL	Als
8ccJ	.
8dd	O-
=3	=3
4ee	-di-
8dd	-lia
8ff	ein
8ee	klein
8dd	Kind
=4	=4
4.cc}	war,
{8b	da
8a	ſtarb
8b	ihr
=5	=5
8ccL	Va-
8aJ	.
8dd	-ter
8ee	und
8cc	Mutter
8b	.
=6	=6
4.a}	ab,
{8g#	da
8a	ſtarb
8b	ihr
=7	=7
8ccL	Va-
8aJ	.
8dd	-ter
8ee	und
8cc	Mutter
8b	.
=8	=8
4a	ab.
8r}	.
==	==
!!!Ag: Ballade, Verfuehrung, Mord, Mordversuch bzw. Rache
!! "Loser Zusammenhang zur Ballade"
!!!ONB: ESAC (Essen Associative Code) Database: BALLADE
!!!AMT: simple triple
!!!AIN: vox
!!!EED: Helmut Schaffrath
!!!EEV: 1.0
!!!source: Deutsche Volkslieder mit ihren Melodien. Herausgegeben vom Deutschen Volksliedarchiv. Zweiter Band Balladen. Berlin 1939.
!!!page: 100
!!!ENC: Anna Maria Matuszewska
!!!EEV: 2025/02/17
*-	*-
